X:469
T: "Im Wald bei der Amsel"
N: Z1149
O: Europa, Mitteleuropa, Deutschland, Nord - Deutschland
R: Liebes - Lied
M: 3/4
L: 1/16
K: A
AAA2A2 | A6G2A2B2 | A6
A2B2=c2 | d8=c4 | =c2B2B4z4 |
B6B2B2B2 | B12 |
B6A2B2=c2 | B8z4 |
B2=c2d4c4 | =c3BB4z4 |
A2B2c4B4 | B3AA4z4 | z6

@@@ Tune index: 10227
